X: 269
T: A Mhaire Ni Laoghaire
R: reel
M: 4/4
K: Adorian
A2Bc3BA|{BA}GcBc3zc/d/|e2{a}e//d//e//d//Je3{a}ed|c/B3/2{c}B/A/JG3 AB/c/|
A3z2B{c}B/A/JG-|G{AG}Ec2Bc2z|c/d/e{a}e/d/A//JB//c//B//A4|{c}B/A/A6z|
ABd>ega3-|ab/{c'}b/a {c'}(3a/g/e/ a2(3a/g/e/ a-|a2zf/Jg3/2a e/{a}e3/2|
{gf}e/d/e/Je/e3{a}e/d/ cB|{c}B/A/JG3AB/c/{Ac}A2-|A2zB2{c}B/A/JG2|{A}G/E/c2Bc3z|
c/d/e {fe}dJc/B/A4|{c}BA6z|ABJc3BA2|{c}AB{c}B/A/JG2{A}G/E/c3/2B/|
c3z (3cde {a}e3/2{a}e/|(3deJe-e3{a}e (3dcB|{c}B/A/JG3AB/c/{AB}A2-|A3zJB2{c}B/A/G-|
G{A}G/E/ c2Bc3|zc/d/e {a}e/d/ A//JB//c//B// A3-|A{c}BA3-A2z|
zA/B/ d2ega2-|a3b/{c'}b/ a{c'}a/g/eJa-|a3/2g/eJa2zJg2-|
gJae<{a}e {a}e//f//e/d/e/ Je2-|e2z2d/c/JB2 (3c/B/A/|JG3AB/c/ A2{c}A-|
A2zJB3{c}B/A/G-|G{c}G/F/ c2Bc3-|czcde{a}e/d/{Bc}BA-|A3{c}BA4-|A8|

